X:1
T:Le Ruban Bleu
R:Bourree
B:Massif Central Tune Book no 1 number 90
M:2/4
L:1/8
N:originally in G
K:C
g2 ec|B>c de|f2 dB|c>d ef|g2 ec|B>c de|f2 dB|c4:|
B>d Bd|c>e ce|d>f df|e2 c2|B>d Bd|c>e ce|g>f ed|1g4:|2c4|]
<end>
<start>
